static/img/kroki/7ed8fd5ef3e13358386e307f4fb23824.svg

<?xml version="1.0" encoding="us-ascii" standalone="no"?><svg xmlns="http://www.w3.org/2000/svg" xmlns:xlink="http://www.w3.org/1999/xlink" contentStyleType="text/css" height="741px" preserveAspectRatio="none" style="width:430px;height:741px;" version="1.1" viewBox="0 0 430 741" width="430px" zoomAndPan="magnify"><defs/><g><!--class digitalocean_container_registry_repository--><g id="elem_digitalocean_container_registry_repository"><rect codeLine="22" fill="#3D176E" height="100.3828" id="digitalocean_container_registry_repository" rx="2.5" ry="2.5" style="stroke:#000D19;stroke-width:0.5;" width="397" x="7" y="633.85"/><ellipse cx="22" cy="653.7445" fill="#ADD1B2" rx="11" ry="11" style="stroke:#181818;stroke-width:1.0;"/><path d="M24.9688,659.3852 Q24.3906,659.682 23.75,659.8227 Q23.1094,659.9789 22.4063,659.9789 Q19.9063,659.9789 18.5781,658.3383 Q17.2656,656.682 17.2656,653.557 Q17.2656,650.432 18.5781,648.7758 Q19.9063,647.1195 22.4063,647.1195 Q23.1094,647.1195 23.75,647.2758 Q24.4063,647.432 24.9688,647.7289 L24.9688,650.4477 Q24.3438,649.8695 23.75,649.6039 Q23.1563,649.3227 22.5313,649.3227 Q21.1875,649.3227 20.5,650.4008 Q19.8125,651.4633 19.8125,653.557 Q19.8125,655.6508 20.5,656.7289 Q21.1875,657.7914 22.5313,657.7914 Q23.1563,657.7914 23.75,657.5258 Q24.3438,657.2445 24.9688,656.6664 L24.9688,659.3852 Z " fill="#000000"/><text fill="#D9B8FF" font-family="Helvetica" font-size="17" lengthAdjust="spacing" textLength="355" x="41" y="659.6298">digitalocean_container_registry_repository</text><line style="stroke:#000D19;stroke-width:0.5;" x1="8" x2="403" y1="673.6391" y2="673.6391"/><text fill="#D9B8FF" font-family="sans-serif" font-size="14" font-weight="bold" lengthAdjust="spacing" textLength="120" x="18" y="695.6342">manifest_count</text><text fill="#D9B8FF" font-family="sans-serif" font-size="14" lengthAdjust="spacing" textLength="44" x="138" y="695.6342">: int64</text><text fill="#D9B8FF" font-family="sans-serif" font-size="14" font-weight="bold" lengthAdjust="spacing" textLength="77" x="18" y="721.9311">tag_count</text><text fill="#D9B8FF" font-family="sans-serif" font-size="14" lengthAdjust="spacing" textLength="44" x="95" y="721.9311">: int64</text></g><!--class digitalocean_resource--><g id="elem_digitalocean_resource"><rect codeLine="26" fill="#3D176E" height="74.0859" id="digitalocean_resource" rx="2.5" ry="2.5" style="stroke:#000D19;stroke-width:0.5;" width="223" x="200" y="438.76"/><ellipse cx="215" cy="458.6545" fill="#ADD1B2" rx="11" ry="11" style="stroke:#181818;stroke-width:1.0;"/><path d="M217.9688,464.2952 Q217.3906,464.592 216.75,464.7327 Q216.1094,464.8889 215.4063,464.8889 Q212.9063,464.8889 211.5781,463.2483 Q210.2656,461.592 210.2656,458.467 Q210.2656,455.342 211.5781,453.6858 Q212.9063,452.0295 215.4063,452.0295 Q216.1094,452.0295 216.75,452.1858 Q217.4063,452.342 217.9688,452.6389 L217.9688,455.3577 Q217.3438,454.7795 216.75,454.5139 Q216.1563,454.2327 215.5313,454.2327 Q214.1875,454.2327 213.5,455.3108 Q212.8125,456.3733 212.8125,458.467 Q212.8125,460.5608 213.5,461.6389 Q214.1875,462.7014 215.5313,462.7014 Q216.1563,462.7014 216.75,462.4358 Q217.3438,462.1545 217.9688,461.5764 L217.9688,464.2952 Z " fill="#000000"/><text fill="#D9B8FF" font-family="Helvetica" font-size="17" lengthAdjust="spacing" textLength="181" x="234" y="464.5398">digitalocean_resource</text><line style="stroke:#000D19;stroke-width:0.5;" x1="201" x2="422" y1="478.5491" y2="478.5491"/><text fill="#D9B8FF" font-family="sans-serif" font-size="14" font-weight="bold" lengthAdjust="spacing" textLength="27" x="211" y="500.5442">urn</text><text fill="#D9B8FF" font-family="sans-serif" font-size="14" lengthAdjust="spacing" textLength="48" x="238" y="500.5442">: string</text></g><!--class resource--><g id="elem_resource"><rect codeLine="29" fill="#3D176E" height="310.7578" id="resource" rx="2.5" ry="2.5" style="stroke:#000D19;stroke-width:0.5;" width="227" x="69" y="7"/><ellipse cx="137.75" cy="26.8945" fill="#ADD1B2" rx="11" ry="11" style="stroke:#181818;stroke-width:1.0;"/><path d="M140.7188,32.5352 Q140.1406,32.832 139.5,32.9727 Q138.8594,33.1289 138.1563,33.1289 Q135.6563,33.1289 134.3281,31.4883 Q133.0156,29.832 133.0156,26.707 Q133.0156,23.582 134.3281,21.9258 Q135.6563,20.2695 138.1563,20.2695 Q138.8594,20.2695 139.5,20.4258 Q140.1563,20.582 140.7188,20.8789 L140.7188,23.5977 Q140.0938,23.0195 139.5,22.7539 Q138.9063,22.4727 138.2813,22.4727 Q136.9375,22.4727 136.25,23.5508 Q135.5625,24.6133 135.5625,26.707 Q135.5625,28.8008 136.25,29.8789 Q136.9375,30.9414 138.2813,30.9414 Q138.9063,30.9414 139.5,30.6758 Q140.0938,30.3945 140.7188,29.8164 L140.7188,32.5352 Z " fill="#000000"/><text fill="#D9B8FF" font-family="Helvetica" font-size="17" lengthAdjust="spacing" textLength="71" x="163.25" y="32.7798">resource</text><line style="stroke:#000D19;stroke-width:0.5;" x1="70" x2="295" y1="46.7891" y2="46.7891"/><text fill="#D9B8FF" font-family="sans-serif" font-size="14" font-weight="bold" lengthAdjust="spacing" textLength="29" x="80" y="68.7842">age</text><text fill="#D9B8FF" font-family="sans-serif" font-size="14" lengthAdjust="spacing" textLength="66" x="109" y="68.7842">: duration</text><text fill="#D9B8FF" font-family="sans-serif" font-size="14" font-weight="bold" lengthAdjust="spacing" textLength="43" x="80" y="95.0811">atime</text><text fill="#D9B8FF" font-family="sans-serif" font-size="14" lengthAdjust="spacing" textLength="70" x="123" y="95.0811">: datetime</text><text fill="#D9B8FF" font-family="sans-serif" font-size="14" font-weight="bold" lengthAdjust="spacing" textLength="43" x="80" y="121.3779">ctime</text><text fill="#D9B8FF" font-family="sans-serif" font-size="14" lengthAdjust="spacing" textLength="70" x="123" y="121.3779">: datetime</text><text fill="#D9B8FF" font-family="sans-serif" font-size="14" font-weight="bold" lengthAdjust="spacing" textLength="14" x="80" y="147.6748">id</text><text fill="#D9B8FF" font-family="sans-serif" font-size="14" lengthAdjust="spacing" textLength="48" x="94" y="147.6748">: string</text><text fill="#D9B8FF" font-family="sans-serif" font-size="14" font-weight="bold" lengthAdjust="spacing" textLength="33" x="80" y="173.9717">kind</text><text fill="#D9B8FF" font-family="sans-serif" font-size="14" lengthAdjust="spacing" textLength="48" x="113" y="173.9717">: string</text><text fill="#D9B8FF" font-family="sans-serif" font-size="14" font-weight="bold" lengthAdjust="spacing" textLength="90" x="80" y="200.2686">last_access</text><text fill="#D9B8FF" font-family="sans-serif" font-size="14" lengthAdjust="spacing" textLength="66" x="170" y="200.2686">: duration</text><text fill="#D9B8FF" font-family="sans-serif" font-size="14" font-weight="bold" lengthAdjust="spacing" textLength="90" x="80" y="226.5654">last_update</text><text fill="#D9B8FF" font-family="sans-serif" font-size="14" lengthAdjust="spacing" textLength="66" x="170" y="226.5654">: duration</text><text fill="#D9B8FF" font-family="sans-serif" font-size="14" font-weight="bold" lengthAdjust="spacing" textLength="48" x="80" y="252.8623">mtime</text><text fill="#D9B8FF" font-family="sans-serif" font-size="14" lengthAdjust="spacing" textLength="70" x="128" y="252.8623">: datetime</text><text fill="#D9B8FF" font-family="sans-serif" font-size="14" font-weight="bold" lengthAdjust="spacing" textLength="43" x="80" y="279.1592">name</text><text fill="#D9B8FF" font-family="sans-serif" font-size="14" lengthAdjust="spacing" textLength="48" x="123" y="279.1592">: string</text><text fill="#D9B8FF" font-family="sans-serif" font-size="14" font-weight="bold" lengthAdjust="spacing" textLength="34" x="80" y="305.4561">tags</text><text fill="#D9B8FF" font-family="sans-serif" font-size="14" lengthAdjust="spacing" textLength="171" x="114" y="305.4561">: dictionary[string, string]</text></g><!--reverse link digitalocean_resource to digitalocean_container_registry_repository--><g id="link_digitalocean_resource_digitalocean_container_registry_repository"><path codeLine="41" d="M283.27,531.74 C267.01,563.36 246.75,602.79 230.98,633.47 " fill="none" id="digitalocean_resource-backto-digitalocean_container_registry_repository" style="stroke:#FFAF37;stroke-width:2.0;"/><polygon fill="none" points="277.42,528.79,292.79,514.2,289.88,535.19,277.42,528.79" style="stroke:#FFAF37;stroke-width:2.0;"/></g><!--reverse link resource to digitalocean_container_registry_repository--><g id="link_resource_digitalocean_container_registry_repository"><path codeLine="42" d="M177.9,338.57 C177.67,394.33 178.69,456.23 182.5,512.85 C185.25,553.75 191.68,599.81 197.05,633.69 " fill="none" id="resource-backto-digitalocean_container_registry_repository" style="stroke:#FFAF37;stroke-width:2.0;"/><polygon fill="none" points="170.9,338.88,178.04,318.93,184.9,338.98,170.9,338.88" style="stroke:#FFAF37;stroke-width:2.0;"/></g><!--reverse link resource to digitalocean_resource--><g id="link_resource_digitalocean_resource"><path codeLine="43" d="M254.59,337.41 C270.48,375.78 285.75,412.65 296.47,438.52 " fill="none" id="resource-backto-digitalocean_resource" style="stroke:#FFAF37;stroke-width:2.0;"/><polygon fill="none" points="247.81,340.34,246.62,319.18,260.74,334.98,247.81,340.34" style="stroke:#FFAF37;stroke-width:2.0;"/></g><!--SRC=[jPD1J-D038Nl_HKZSOkerC92AUB2Lbej5xG2RWXLxeoJMarc8ey3ohBxtvbfe4gJ0EB0BNhlYz-pewp9eCAYb5eLMAoG_SXlo9R0KAXBPlUqSBbZTP2ca1xFkkOlP-LJu1eALBynVqGX3LtYRarwOz5xTTIoVeBUPEmgQvhnmc1ziD1AYrhauFsb2DEg4coLCVFLMPfsoUxGWsCpdPrY3tDia5-HoMHYflCkycdKXtllY5lwYshQFjgr4-pLx4LigGzRHg9LihVec_zknpzW3DbCdRIqcwOJM-Gz_NODnZr5EeNSjsEy8AEJkiH5RokSdvbqDWXVlGVhU3bbA2E1t6a4kzHX2w1GQScOaHUkmqFfF8dZMZsFagG0Iobw2MXb9KdE5Lav_H4SWQmh_X_AOFIkOetRSHNRY8UaiF6EtqCWmuYOYa78sQW85Oq6Wl4vQ7f08zEQdIJXDlj2o98bQ1t-bqx2rgdAEAlZ50Cv5XffDpYSefb8Ehu6NDyttk4hyn1M7JxAnR_nUFo5ZpBwdZVVl1S0]--></g></svg>

<svg xmlns="http://www.w3.org/2000/svg" width="430" height="741" preserveAspectRatio="none" style="width:430px;height:741px"><rect width="397" height="100.383" x="7" y="633.85" fill="#3D176E" rx="2.5" ry="2.5" style="stroke:#000d19;stroke-width:.5"/><circle cx="22" cy="653.745" r="11" fill="#ADD1B2" style="stroke:#181818;stroke-width:1"/><path d="M24.969 659.385q-.578.297-1.219.438-.64.156-1.344.156-2.5 0-3.828-1.64-1.312-1.657-1.312-4.782t1.312-4.781q1.328-1.656 3.828-1.656.703 0 1.344.156.656.156 1.219.453v2.719q-.625-.578-1.219-.844-.594-.281-1.219-.281-1.343 0-2.031 1.078-.688 1.062-.688 3.156 0 2.094.688 3.172.688 1.062 2.031 1.062.625 0 1.219-.265.594-.281 1.219-.86v2.72Z"/><text x="41" y="659.63" fill="#D9B8FF" font-family="Helvetica" font-size="17" textLength="355">digitalocean_container_registry_repository</text><path d="M8 673.639h395" style="stroke:#000d19;stroke-width:.5"/><text x="18" y="695.634" fill="#D9B8FF" font-family="sans-serif" font-size="14" font-weight="bold" textLength="120">manifest_count</text><text x="138" y="695.634" fill="#D9B8FF" font-family="sans-serif" font-size="14" textLength="44">: int64</text><text x="18" y="721.931" fill="#D9B8FF" font-family="sans-serif" font-size="14" font-weight="bold" textLength="77">tag_count</text><text x="95" y="721.931" fill="#D9B8FF" font-family="sans-serif" font-size="14" textLength="44">: int64</text><rect width="223" height="74.086" x="200" y="438.76" fill="#3D176E" rx="2.5" ry="2.5" style="stroke:#000d19;stroke-width:.5"/><circle cx="215" cy="458.654" r="11" fill="#ADD1B2" style="stroke:#181818;stroke-width:1"/><path d="M217.969 464.295q-.578.297-1.219.438-.64.156-1.344.156-2.5 0-3.828-1.64-1.312-1.657-1.312-4.782t1.312-4.781q1.328-1.656 3.828-1.656.703 0 1.344.156.656.156 1.219.453v2.719q-.625-.579-1.219-.844-.594-.281-1.219-.281-1.344 0-2.031 1.078-.688 1.062-.688 3.156 0 2.094.688 3.172.688 1.062 2.031 1.062.625 0 1.219-.265.594-.281 1.219-.86v2.72Z"/><text x="234" y="464.54" fill="#D9B8FF" font-family="Helvetica" font-size="17" textLength="181">digitalocean_resource</text><path d="M201 478.549h221" style="stroke:#000d19;stroke-width:.5"/><text x="211" y="500.544" fill="#D9B8FF" font-family="sans-serif" font-size="14" font-weight="bold" textLength="27">urn</text><text x="238" y="500.544" fill="#D9B8FF" font-family="sans-serif" font-size="14" textLength="48">: string</text><rect width="227" height="310.758" x="69" y="7" fill="#3D176E" rx="2.5" ry="2.5" style="stroke:#000d19;stroke-width:.5"/><circle cx="137.75" cy="26.895" r="11" fill="#ADD1B2" style="stroke:#181818;stroke-width:1"/><path d="M140.719 32.535q-.578.297-1.219.438-.64.156-1.344.156-2.5 0-3.828-1.64-1.312-1.657-1.312-4.782t1.312-4.781q1.328-1.656 3.828-1.656.703 0 1.344.156.656.156 1.219.453v2.719q-.625-.578-1.219-.844-.594-.281-1.219-.281-1.344 0-2.031 1.078-.688 1.062-.688 3.156 0 2.094.688 3.172.688 1.062 2.031 1.062.625 0 1.219-.265.594-.281 1.219-.86v2.72Z"/><text x="163.25" y="32.78" fill="#D9B8FF" font-family="Helvetica" font-size="17" textLength="71">resource</text><path d="M70 46.789h225" style="stroke:#000d19;stroke-width:.5"/><text x="80" y="68.784" fill="#D9B8FF" font-family="sans-serif" font-size="14" font-weight="bold" textLength="29">age</text><text x="109" y="68.784" fill="#D9B8FF" font-family="sans-serif" font-size="14" textLength="66">: duration</text><text x="80" y="95.081" fill="#D9B8FF" font-family="sans-serif" font-size="14" font-weight="bold" textLength="43">atime</text><text x="123" y="95.081" fill="#D9B8FF" font-family="sans-serif" font-size="14" textLength="70">: datetime</text><text x="80" y="121.378" fill="#D9B8FF" font-family="sans-serif" font-size="14" font-weight="bold" textLength="43">ctime</text><text x="123" y="121.378" fill="#D9B8FF" font-family="sans-serif" font-size="14" textLength="70">: datetime</text><text x="80" y="147.675" fill="#D9B8FF" font-family="sans-serif" font-size="14" font-weight="bold" textLength="14">id</text><text x="94" y="147.675" fill="#D9B8FF" font-family="sans-serif" font-size="14" textLength="48">: string</text><text x="80" y="173.972" fill="#D9B8FF" font-family="sans-serif" font-size="14" font-weight="bold" textLength="33">kind</text><text x="113" y="173.972" fill="#D9B8FF" font-family="sans-serif" font-size="14" textLength="48">: string</text><text x="80" y="200.269" fill="#D9B8FF" font-family="sans-serif" font-size="14" font-weight="bold" textLength="90">last_access</text><text x="170" y="200.269" fill="#D9B8FF" font-family="sans-serif" font-size="14" textLength="66">: duration</text><text x="80" y="226.565" fill="#D9B8FF" font-family="sans-serif" font-size="14" font-weight="bold" textLength="90">last_update</text><text x="170" y="226.565" fill="#D9B8FF" font-family="sans-serif" font-size="14" textLength="66">: duration</text><text x="80" y="252.862" fill="#D9B8FF" font-family="sans-serif" font-size="14" font-weight="bold" textLength="48">mtime</text><text x="128" y="252.862" fill="#D9B8FF" font-family="sans-serif" font-size="14" textLength="70">: datetime</text><text x="80" y="279.159" fill="#D9B8FF" font-family="sans-serif" font-size="14" font-weight="bold" textLength="43">name</text><text x="123" y="279.159" fill="#D9B8FF" font-family="sans-serif" font-size="14" textLength="48">: string</text><text x="80" y="305.456" fill="#D9B8FF" font-family="sans-serif" font-size="14" font-weight="bold" textLength="34">tags</text><text x="114" y="305.456" fill="#D9B8FF" font-family="sans-serif" font-size="14" textLength="171">: dictionary[string, string]</text><g fill="none"><path d="M283.27 531.74c-16.26 31.62-36.52 71.05-52.29 101.73" style="stroke:#ffaf37;stroke-width:2"/><path d="m277.42 528.79 15.37-14.59-2.91 20.99-12.46-6.4z" style="stroke:#ffaf37;stroke-width:2"/></g><g fill="none"><path d="M177.9 338.57c-.23 55.76.79 117.66 4.6 174.28 2.75 40.9 9.18 86.96 14.55 120.84" style="stroke:#ffaf37;stroke-width:2"/><path d="m170.9 338.88 7.14-19.95 6.86 20.05-14-.1z" style="stroke:#ffaf37;stroke-width:2"/></g><g fill="none"><path d="M254.59 337.41c15.89 38.37 31.16 75.24 41.88 101.11" style="stroke:#ffaf37;stroke-width:2"/><path d="m247.81 340.34-1.19-21.16 14.12 15.8-12.93 5.36z" style="stroke:#ffaf37;stroke-width:2"/></g></svg>
